X:1
T:Lindeman, 12.11.11.786
T:Lindeman, 12.11.11.786
T:Ludvig M. Lindeman (1812-1887)
T:Public Domain Courtesy of the Cyber Hymnal™
C:Ludvig M. Lindeman (1812-1887)
Z:Public Domain
Z:Courtesy of the Cyber Hymnal™
%%score ( 1 2 ) ( 3 4 )
L:1/8
Q:1/4=110
M:4/4
K:F
V:1 treble 
V:2 treble 
V:3 bass 
V:4 bass 
V:1
 [A,A]2 [B,G]2 [A,F]2 C2 | D4 [A,C]3 z | [Fc]2 [EB]2 [FA]2 [CF]2 | [CA]4 [CG]3 z | %4
 [CA]2 [Cc]2 [Dc]2 [F=B]2 | [Ec]6 z2 | [FA]2 [EG]2 [CF]2 C2 | [B,D]4 [A,C]3 z | %8
 [Ec]2 [EB]2 [EA]2 [DF]2 | [DA]4 [EG]3 z | [CA]2 [Fc]2 [Gc]2 [F=B]2 | [Ec]6 z2 | %12
 [EG]2 [DG]2 [EA]3 [EG] | [DF]2 [DB]2 [EG]3 z | [Fc]3 [FB] [FA]2 F2 | [Fd]2 [Bd]2 [Ac]2 [FA]2 | %16
 [FB]2 [FA]2 [EG]2 F2 | A4 [B,G]4 x2 | [A,F]8 |] %19
V:2
 x6 C2 | (C2 B,2) x4 | x8 | x8 | x8 | x8 | x6 C2 | x8 | x8 | x8 | x8 | x8 | x8 | x8 | x6 F2 | x8 | %16
 x6 F2 | D2 C2 x6 | x8 |] %19
V:3
 [F,,F,]2 [C,E,]2 [D,F,]2 [A,,F,]2 | [B,,F,]4 F,3 z | [A,C]2 [G,C]2 [F,C]2 [A,,F,]2 | %3
 [C,F,]4 [C,E,]3 z | F,2 [E,G,]2 [F,A,]2 G,2 | [C,G,]6 z2 | [F,A,]2 [G,B,]2 A,2 [F,A,]2 | %7
 [D,F,]2 [E,G,]2 [F,A,]3 z | [C,G,]2 [C,G,]2 [^C,A,]2 [D,A,]2 | [F,=B,]4 [C,C]3 z | %10
 [F,A,]2 A,2 [G,E]2 [G,,D]2 | [C,E]6 z2 | [C,C]2 [B,,D]2 [A,,^C]3 [^C,A,] | %13
 [D,A,]2 [G,B,]2 [C,C]3 z | [A,,C]3 [B,,D] [C,C]2 [D,A,]2 | [D,B,]2 [E,G,]2 [F,A,]2 [A,C]2 | %16
 [D,F,]2 [C,C]2 [B,,C]2 [A,,C]2 | F,6 (z2 E,2) | [F,,F,]8 |] %19
V:4
 x8 | x4 F,3 x | x8 | x8 | F,2 x2 G,2 x2 | x8 | x4 A,2 x2 | x8 | x8 | x8 | x2 A,2 x4 | x8 | x8 | %13
 x8 | x8 | x8 | x8 | B,,4 C,4 x2 | x8 |] %19

